X: 37666
T: Snowplough, The
R: reel
M: 4/4
K: Amajor
A,2 A,C A2 Ad|cAec dBBc|A,2 A,C A2 AE|FDEC A,/A,/A, A,B,|
A,2 A,C A2 Ad|cAec dBBd|cAFA GBEG|AFEC A,/A,/A, A,2||
c2 ea c/c/c ef|ecae fBBd|c2 ea c/c/c ef|ecdB A2 Ad|
c2 ea c/c/c ef|ecae fBBd|cAFA GBEG|AFEC A,/A,/A, A,2||

